X: 39676
T: Tenpenny Bit, The
R: jig
M: 6/8
K: Gmajor
d|edB G2A|Bcd Bcd|edB G2A|BAB GFE|
DED G2A|Bcd Bcd|edB gdB|BAG A2:|

